icons/v.svg

<svg xmlns="http://www.w3.org/2000/svg" viewBox="0 0 32 32"><g fill="#64b5f6" data-iconColor="V"><path d="M20.786 30.237 30.948 1.978c.173-.479-.099-.828-.606-.78l-7.992.77c-.507.049-1.054.479-1.222.96l-9.406 27.007c-.167.481.11.871.619.871h7.779a.7.7 0 0 0 .617-.434z"/><path d="m1.658 1.198 7.992.77c.507.049 1.055.479 1.223.96l9.605 27.443c.084.24-.054.435-.309.435h-7.828c-.509 0-1.062-.389-1.235-.868L1.052 1.978c-.173-.479.099-.828.606-.78"/></g></svg>

<!--
  - The MIT License (MIT)
  -
  - Copyright (c) 2015-2024 Elior "Mallowigi" Boukhobza
  -
  - Permission is hereby granted, free of charge, to any person obtaining a copy
  - of this software and associated documentation files (the "Software"), to deal
  - in the Software without restriction, including without limitation the rights
  - to use, copy, modify, merge, publish, distribute, sublicense, and/or sell
  - copies of the Software, and to permit persons to whom the Software is
  - furnished to do so, subject to the following conditions:
  -
  - The above copyright notice and this permission notice shall be included in all
  - copies or substantial portions of the Software.
  -
  - THE SOFTWARE IS PROVIDED "AS IS", WITHOUT WARRANTY OF ANY KIND, EXPRESS OR
  - IMPLIED, INCLUDING BUT NOT LIMITED TO THE WARRANTIES OF MERCHANTABILITY,
  - FITNESS FOR A PARTICULAR PURPOSE AND NONINFRINGEMENT. IN NO EVENT SHALL THE
  - AUTHORS OR COPYRIGHT HOLDERS BE LIABLE FOR ANY CLAIM, DAMAGES OR OTHER
  - LIABILITY, WHETHER IN AN ACTION OF CONTRACT, TORT OR OTHERWISE, ARISING FROM,
  - OUT OF OR IN CONNECTION WITH THE SOFTWARE OR THE USE OR OTHER DEALINGS IN THE
  - SOFTWARE.
  -
  -->

<svg  xmlns="http://www.w3.org/2000/svg" viewBox="0 0 32 32" width="16px" height="16px">
  <g fill="#64B5F6" data-iconColor="V">
    <path
        d=" M 20.786 30.237 L 30.948 1.978 C 31.121 1.499 30.849 1.15 30.342 1.198 L 22.35 1.968 C 21.843 2.017 21.296 2.447 21.128 2.928 L 11.722 29.935 C 11.555 30.416 11.832 30.806 12.341 30.806 L 20.12 30.806 C 20.375 30.806 20.651 30.612 20.737 30.372 L 20.786 30.237 Z "/>
    <path
        d=" M 1.658 1.198 L 9.65 1.968 C 10.157 2.017 10.705 2.447 10.873 2.928 L 20.478 30.371 C 20.562 30.611 20.424 30.806 20.169 30.806 L 12.341 30.806 C 11.832 30.806 11.279 30.417 11.106 29.938 L 1.052 1.978 C 0.879 1.499 1.151 1.15 1.658 1.198 Z "/>
  </g>
</svg>
